X: 1865
T: Tarz-ı Nevîn Seyir
C: Şefik Gürmeriç
O: Turkey
F: http://compmusic.upf.edu/node/140
N: tarzinevin--seyir--sofyan--1--sefik_gurmeric
N: makam= tarzinevin
N: form= seyir
N: usul= sofyan = 4/4
M: 4/4
L: 1/16
K: C _B _7/8d  
Q: 1/4=60
%%MIDI tuningsystem comma53
f4 g8 g2_3/4a2  | g3f _1/4e2f2 g8  | \
w:   |   | 
z4 g2_3/4a2 c'2_1/4b2 a2g2  | g2f2 f2_1/4e2 f8  | 
w:   |   | 
z4 e2f2 g2_3/4a4g2  | g2f2 f2_1/4e2 e8  | \
w:   |   | 
z4 f2_3/4a2 g2f2 f2_1/4e2  | _1/4e2_3/4d2 d2c2 c8  | 
w:   |   | 
z4 f2e2 _3/4d4 c4  | _3/4d2c2 B2A2 B8  | \
w:   |   | 
c4 =d8 B2c2  | B2_A2 G2F2 G8  | =d4 _e2d2 d2c2 c2B2  | 
w:   |   |   | 
B2_A2 A2G2 F4 G2A2  | B2c4B2 B2_A2 A2G2  | G16  | |


